src/images/icons/icon-map-pin.svg

<svg width="48" height="55" viewBox="0 0 48 55" fill="none" xmlns="http://www.w3.org/2000/svg">
<g clip-path="url(#clip0_24_670)">
<path d="M24 48.3569C37.2548 48.3569 48 37.6118 48 24.3569C48 11.1021 37.2548 0.356934 24 0.356934C10.7452 0.356934 0 11.1021 0 24.3569C0 37.6118 10.7452 48.3569 24 48.3569Z" fill="#FFE17F"/>
<path d="M24.1 16.5571C21 16.5571 18.5 19.1571 18.5 22.3571C18.5 22.9571 18.6 23.4571 18.7 23.9571C18.8 24.3571 19 24.8571 19.2 25.1571C20 26.8571 21.2 28.4571 23.5 31.1571C23.7 31.3571 24.2 31.7571 24.8 31.0571C29.6 25.6571 29.6 22.9571 29.6 22.9571C29.6 22.7571 29.6 22.4571 29.6 22.2571C29.7 19.1571 27.2 16.5571 24.1 16.5571Z" fill="black"/>
<path d="M24 0.356934C10.7 0.356934 0 11.0569 0 24.3569C0 36.2569 8.7 46.1569 20.1 48.0569L24.1 54.3569L28.1 47.9569C39.4 46.0569 48 36.2569 48 24.3569C48 11.0569 37.3 0.356934 24 0.356934ZM33 22.7569C33 22.7569 33.1 27.0569 24.9 35.7569C24.1 36.5569 23.3 35.7569 23.3 35.7569C19.5 31.3569 17.5 28.8569 16.2 26.1569C15.9 25.5569 15.6 24.9569 15.4 24.2569C15.2 23.4569 15 22.6569 15 21.7569C15 16.7569 19.1 12.6569 24.1 12.6569C29.1 12.6569 33.2 16.7569 33.2 21.7569C33.1 22.0569 33 22.3569 33 22.7569Z" fill="black"/>
</g>
<defs>
<clipPath id="clip0_24_670">
<rect width="48" height="54" fill="white" transform="translate(0 0.356934)"/>
</clipPath>
</defs>
</svg>

<svg xmlns="http://www.w3.org/2000/svg" width="48" height="55" fill="none"><g clip-path="url(#a)"><path fill="#FFE17F" d="M24 48.36a24 24 0 1 0 0-48 24 24 0 0 0 0 48Z"/><path fill="#000" d="M24.1 16.56a5.7 5.7 0 0 0-5.6 5.8c0 .6.1 1.1.2 1.6.1.4.3.9.5 1.2.8 1.7 2 3.3 4.3 6 .2.2.7.6 1.3-.1 4.8-5.4 4.8-8.1 4.8-8.1v-.7c.1-3.1-2.4-5.7-5.5-5.7Z"/><path fill="#000" d="M24 .36c-13.3 0-24 10.7-24 24 0 11.9 8.7 21.8 20.1 23.7l4 6.3 4-6.4A23.88 23.88 0 0 0 48 24.36c0-13.3-10.7-24-24-24Zm9 22.4s.1 4.3-8.1 13c-.8.8-1.6 0-1.6 0-3.8-4.4-5.8-6.9-7.1-9.6-.3-.6-.6-1.2-.8-1.9-.2-.8-.4-1.6-.4-2.5 0-5 4.1-9.1 9.1-9.1s9.1 4.1 9.1 9.1c-.1.3-.2.6-.2 1Z"/></g><defs><clipPath id="a"><path fill="#fff" d="M0 .36h48v54H0z"/></clipPath></defs></svg>
